svgs/la_wallet.svg

<svg width="192" height="192" viewBox="0 0 192 192" fill="none" xmlns="http://www.w3.org/2000/svg">
<path d="M139.065 166.821C134.24 169.876 128.324 170.796 122.75 169.29L102.694 163.869C92.3203 161.065 81.4602 160.548 70.8664 162.354L69.0899 162.657C62.4586 163.787 55.699 163.958 49.019 163.165L35.7252 161.586C34.302 161.416 32.8625 161.439 31.4457 161.655C28.99 162.027 26.8576 159.952 27.1641 157.489L30.609 129.8C30.8154 128.141 31.1889 126.506 31.7234 124.921L32.4008 122.914C36.6815 110.225 36.4408 96.4464 31.7194 83.9143L29.4027 77.7649L24.5116 58.9735C22.7203 52.0918 21.9229 44.9452 22.0058 37.7414L22.1221 22.1584C22.8656 22.1408 23.735 22.1245 24.7513 22.1101C31.5437 22.0135 44.1591 22.0004 67.745 22C91.9853 21.9993 107.201 22.0718 114.236 22.2131L115.538 28.6445C118.711 44.3162 116.737 60.5928 109.913 75.0537L105.37 84.6766C102.924 89.8581 106.459 95.876 112.178 96.2678L166.227 99.9703L166.147 100.545C164.858 109.88 165.123 119.365 166.935 128.613L168.646 137.346C169.044 139.382 169.107 141.468 168.832 143.524L167.548 153.136C167.33 154.765 166.171 156.112 164.592 156.571C163.997 156.744 163.429 157.003 162.907 157.342L161.857 158.021C156.6 157.185 151.179 158.394 146.745 161.466L139.065 166.821Z" stroke="black" stroke-width="12" stroke-linejoin="round"/>
</svg>

<svg xmlns="http://www.w3.org/2000/svg" width="192" height="192" fill="none" viewBox="0 0 192 192"><path stroke="#000" stroke-linejoin="round" stroke-width="12" d="M139.065 166.821a20.504 20.504 0 0 1-16.315 2.469l-20.056-5.421a74.194 74.194 0 0 0-31.828-1.515l-1.776.303a70.212 70.212 0 0 1-20.071.508l-13.294-1.579a15.89 15.89 0 0 0-4.28.069c-2.455.372-4.587-1.703-4.28-4.166l3.444-27.689c.206-1.659.58-3.294 1.114-4.879l.678-2.007a58.016 58.016 0 0 0-.682-39l-2.316-6.15-4.891-18.79c-1.792-6.882-2.59-14.029-2.506-21.233l.116-15.583c.744-.017 1.613-.034 2.63-.048 6.792-.096 19.407-.11 42.993-.11 24.24 0 39.456.072 46.491.213l1.302 6.431a74.23 74.23 0 0 1-5.625 46.41l-4.543 9.623c-2.446 5.181 1.089 11.199 6.808 11.59l54.049 3.703-.08.575a85.299 85.299 0 0 0 .788 28.068l1.711 8.733a19.04 19.04 0 0 1 .186 6.178l-1.284 9.612a4.15 4.15 0 0 1-2.956 3.435 6.346 6.346 0 0 0-1.685.771l-1.05.679a20.803 20.803 0 0 0-15.112 3.445l-7.68 5.355Z"/></svg>
